;FLAVOR:Marlin
;TIME:11350
;Filament used: 13.9267m
;Layer height: 0.28
;MINX:9
;MINY:9
;MINZ:0.28
;MAXX:151
;MAXY:151
;MAXZ:6.72
;Generated with Cura_SteamEngine 4.13.0
M140 S50
M105
M190 S50
M104 S200
M105
M109 S200
M82 ;absolute extrusion mode
M201 X500.00 Y500.00 Z100.00 E5000.00 ;Setup machine max acceleration
M203 X500.00 Y500.00 Z10.00 E50.00 ;Setup machine max feedrate
M204 P500.00 R1000.00 T500.00 ;Setup Print/Retract/Travel acceleration
M205 X8.00 Y8.00 Z0.40 E5.00 ;Setup Jerk
M220 S100 ;Reset Feedrate
M221 S100 ;Reset Flowrate

G28 ;Home

G92 E0 ;Reset Extruder
G1 Z2.0 F3000 ;Move Z Axis up
G1 X10.1 Y20 Z0.28 F5000.0 ;Move to start position
G1 X10.1 Y100.0 Z0.28 F1500.0 E8 ;Draw the first line
G1 X10.4 Y100.0 Z0.28 F5000.0 ;Move to side a little
G1 X10.4 Y20 Z0.28 F1500.0 E15 ;Draw the second line
G92 E0 ;Reset Extruder
G1 Z2.0 F3000 ;Move Z Axis up

G92 E0
G92 E0
G1 F2700 E-6
;LAYER_COUNT:24
;LAYER:0
M107
M204 S500
M205 X8 Y8
G0 F7500 X12.198 Y12.264 Z0.28
;TYPE:SKIRT
G1 F2700 E0
G1 F1500 X12.886 Y11.627 E0.04148
G1 X13.626 Y11.051 E0.08296
G1 X14.412 Y10.539 E0.12445
G1 X15.239 Y10.097 E0.16593
G1 X16.101 Y9.727 E0.20743
G1 X16.991 Y9.431 E0.24892
G1 X17.903 Y9.213 E0.2904
G1 X18.83 Y9.072 E0.33188
G1 X19.701 Y9.013 E0.3705
G1 X20.022 Y9.004 E0.3847
G1 X20.33 Y9 E0.39833
G1 X139.293 Y9 E5.66077
G1 X140.149 Y9.011 E5.69864
G1 X141.085 Y9.065 E5.74012
G1 X142.013 Y9.197 E5.78158
G1 X142.927 Y9.409 E5.82308
G1 X143.819 Y9.698 E5.86456
G1 X144.684 Y10.061 E5.90606
G1 X145.514 Y10.497 E5.94753
G1 X146.305 Y11.002 E5.98905
G1 X147.049 Y11.573 E6.03053
G1 X147.742 Y12.205 E6.07202
G1 X148.379 Y12.893 E6.1135
G1 X148.954 Y13.634 E6.15499
G1 X149.465 Y14.42 E6.19646
G1 X149.907 Y15.248 E6.23798
G1 X150.276 Y16.11 E6.27946
G1 X150.571 Y17 E6.32093
G1 X150.789 Y17.912 E6.36241
G1 X150.929 Y18.84 E6.40393
G1 X150.987 Y19.701 E6.4421
G1 X150.996 Y20.021 E6.45626
G1 X151 Y20.33 E6.46993
G1 X150.999 Y139.4 E11.73711
G1 X150.99 Y140.127 E11.76927
G1 X150.939 Y141.064 E11.81078
G1 X150.807 Y141.992 E11.85225
G1 X150.598 Y142.906 E11.89372
G1 X150.311 Y143.799 E11.93522
G1 X149.949 Y144.665 E11.97674
G1 X149.515 Y145.496 E12.01821
G1 X149.011 Y146.287 E12.0597
G1 X148.442 Y147.032 E12.10117
G1 X147.811 Y147.727 E12.14269
G1 X147.124 Y148.365 E12.18417
G1 X146.385 Y148.942 E12.22564
G1 X145.599 Y149.454 E12.26714
G1 X144.773 Y149.897 E12.3086
G1 X143.911 Y150.269 E12.35013
G1 X143.022 Y150.565 E12.39158
G1 X142.11 Y150.785 E12.43308
G1 X141.183 Y150.926 E12.47456
G1 X140.299 Y150.987 E12.51375
G1 X139.978 Y150.996 E12.52796
G1 X139.67 Y151 E12.54159
G1 X20.565 Y150.999 E17.81031
G1 X19.867 Y150.99 E17.84119
G1 X18.931 Y150.938 E17.88266
G1 X18.002 Y150.806 E17.92417
G1 X17.088 Y150.596 E17.96565
G1 X16.195 Y150.309 E18.00715
G1 X15.33 Y149.946 E18.04864
G1 X14.499 Y149.512 E18.09011
G1 X13.708 Y149.008 E18.1316
G1 X12.963 Y148.438 E18.1731
G1 X12.269 Y147.807 E18.21459
G1 X11.632 Y147.12 E18.25603
G1 X11.055 Y146.38 E18.29754
G1 X10.543 Y145.594 E18.33904
G1 X10.1 Y144.767 E18.38054
G1 X9.729 Y143.906 E18.42201
G1 X9.433 Y143.016 E18.4635
G1 X9.214 Y142.104 E18.50499
G1 X9.073 Y141.177 E18.54647
G1 X9.013 Y140.288 E18.58589
G1 X9.004 Y139.955 E18.60062
G1 X9 Y139.658 E18.61376
G1 X9.001 Y20.525 E23.88373
G1 X9.01 Y19.86 E23.91315
G1 X9.063 Y18.924 E23.95462
G1 X9.195 Y17.995 E23.99613
G1 X9.406 Y17.081 E24.03762
G1 X9.694 Y16.189 E24.07909
G1 X10.057 Y15.324 E24.12058
G1 X10.492 Y14.493 E24.16207
G1 X10.996 Y13.703 E24.20353
G1 X11.566 Y12.958 E24.24502
G1 X12.198 Y12.264 E24.28654
G0 F7500 X12.589 Y12.439
G1 F1500 X13.274 Y11.823 E24.3273
G1 X14.01 Y11.27 E24.36802
G1 X14.791 Y10.782 E24.40876
G1 X15.611 Y10.364 E24.44947
G1 X16.465 Y10.019 E24.49022
G1 X17.345 Y9.749 E24.53094
G1 X18.245 Y9.557 E24.57164
G1 X19.159 Y9.443 E24.61239
G1 X19.712 Y9.413 E24.63689
G1 X20.033 Y9.404 E24.65109
G1 X20.33 Y9.4 E24.66423
G1 X139.293 Y9.4 E29.92668
G1 X140.143 Y9.411 E29.96428
G1 X141.062 Y9.464 E30.005
G1 X141.973 Y9.597 E30.04573
G1 X142.869 Y9.808 E30.08645
G1 X143.743 Y10.096 E30.12715
G1 X144.59 Y10.459 E30.16792
G1 X145.401 Y10.894 E30.20863
G1 X146.171 Y11.398 E30.24934
G1 X146.895 Y11.967 E30.29007
G1 X147.567 Y12.597 E30.33082
G1 X148.182 Y13.282 E30.37154
G1 X148.735 Y14.018 E30.41226
G1 X149.222 Y14.799 E30.45298
G1 X149.639 Y15.62 E30.49371
G1 X149.984 Y16.474 E30.53446
G1 X150.253 Y17.354 E30.57516
G1 X150.445 Y18.255 E30.61591
G1 X150.558 Y19.168 E30.65661
G1 X150.587 Y19.712 E30.68071
G1 X150.596 Y20.032 E30.69487
G1 X150.6 Y20.33 E30.70805
G1 X150.599 Y139.395 E35.97501
G1 X150.59 Y140.122 E36.00717
G1 X150.539 Y141.041 E36.04789
G1 X150.408 Y141.953 E36.08864
G1 X150.198 Y142.849 E36.12935
G1 X149.912 Y143.724 E36.17008
G1 X149.551 Y144.571 E36.2108
G1 X149.117 Y145.383 E36.25153
G1 X148.615 Y146.155 E36.29227
G1 X148.047 Y146.88 E36.33301
G1 X147.419 Y147.553 E36.37373
G1 X146.735 Y148.169 E36.41445
G1 X146 Y148.723 E36.45516
G1 X145.22 Y149.212 E36.49589
G1 X144.4 Y149.631 E36.53662
G1 X143.547 Y149.977 E36.57734
G1 X142.667 Y150.248 E36.61807
G1 X141.767 Y150.441 E36.65879
G1 X140.853 Y150.556 E36.69954
G1 X140.288 Y150.587 E36.72457
G1 X139.967 Y150.596 E36.73878
G1 X139.67 Y150.6 E36.75192
G1 X20.57 Y150.599 E42.02042
G1 X19.872 Y150.59 E42.0513
G1 X18.953 Y150.538 E42.09202
G1 X18.042 Y150.407 E42.13273
G1 X17.146 Y150.197 E42.17344
G1 X16.271 Y149.91 E42.21418
G1 X15.424 Y149.548 E42.25492
G1 X14.612 Y149.114 E42.29565
G1 X13.841 Y148.612 E42.33635
G1 X13.116 Y148.044 E42.37709
G1 X12.443 Y147.415 E42.41784
G1 X11.828 Y146.731 E42.45853
G1 X11.274 Y145.996 E42.49924
G1 X10.786 Y145.215 E42.53998
G1 X10.367 Y144.395 E42.58072
G1 X10.021 Y143.542 E42.62144
G1 X9.751 Y142.662 E42.66216
G1 X9.558 Y141.761 E42.70292
G1 X9.444 Y140.848 E42.74362
G1 X9.413 Y140.277 E42.76891
G1 X9.404 Y139.944 E42.78365
G1 X9.4 Y139.658 E42.7963
G1 X9.401 Y20.531 E48.066
G1 X9.41 Y19.866 E48.09542
G1 X9.462 Y18.946 E48.13618
G1 X9.594 Y18.035 E48.1769
G1 X9.805 Y17.139 E48.21762
G1 X10.092 Y16.264 E48.25836
G1 X10.455 Y15.418 E48.29908
G1 X10.889 Y14.606 E48.33981
G1 X11.392 Y13.835 E48.38053
G1 X11.961 Y13.111 E48.42127
G1 X12.589 Y12.439 E48.46195
G0 F7500 X12.981 Y12.617
G1 F1500 X13.662 Y12.024 E48.5019
G1 X14.394 Y11.494 E48.54187
G1 X15.169 Y11.031 E48.58181
G1 X15.982 Y10.638 E48.62176
G1 X16.827 Y10.318 E48.66173
G1 X17.696 Y10.075 E48.70164
G1 X18.584 Y9.909 E48.7416
G1 X19.723 Y9.813 E48.79217
G1 X20.044 Y9.804 E48.80637
G1 X20.33 Y9.8 E48.81902
G1 X139.293 Y9.8 E54.08147
G1 X140.137 Y9.811 E54.11881
G1 X141.039 Y9.864 E54.15878
G1 X141.932 Y9.996 E54.19871
G1 X142.81 Y10.207 E54.23865
G1 X143.666 Y10.495 E54.27861
G1 X144.493 Y10.857 E54.31854
G1 X145.285 Y11.292 E54.35851
G1 X146.036 Y11.794 E54.39847
G1 X146.739 Y12.361 E54.43842
G1 X147.389 Y12.988 E54.47837
G1 X147.981 Y13.67 E54.51832
G1 X148.511 Y14.401 E54.55827
G1 X148.973 Y15.177 E54.59822
G1 X149.366 Y15.99 E54.63816
G1 X149.684 Y16.835 E54.6781
G1 X149.927 Y17.705 E54.71806
G1 X150.092 Y18.593 E54.75801
G1 X150.187 Y19.723 E54.80817
G1 X150.196 Y20.043 E54.82234
G1 X150.2 Y20.33 E54.83503
G1 X150.199 Y139.39 E60.10177
G1 X150.19 Y140.117 E60.13393
G1 X150.139 Y141.019 E60.1739
G1 X150.008 Y141.913 E60.21386
G1 X149.799 Y142.791 E60.25379
G1 X149.513 Y143.648 E60.29375
G1 X149.152 Y144.476 E60.33371
G1 X148.72 Y145.268 E60.37362
G1 X148.219 Y146.02 E60.41359
G1 X147.653 Y146.724 E60.45355
G1 X147.028 Y147.375 E60.49347
G1 X146.347 Y147.969 E60.53345
G1 X145.616 Y148.5 E60.57341
G1 X144.842 Y148.964 E60.61333
G1 X144.029 Y149.358 E60.6533
G1 X143.185 Y149.678 E60.69323
G1 X142.315 Y149.923 E60.73321
G1 X141.428 Y150.089 E60.77313
G1 X140.277 Y150.187 E60.82423
G1 X139.956 Y150.196 E60.83843
G1 X139.67 Y150.2 E60.85108
G1 X20.575 Y150.199 E66.11937
G1 X19.877 Y150.19 E66.15025
G1 X18.976 Y150.139 E66.19017
G1 X18.082 Y150.007 E66.23014
G1 X17.204 Y149.798 E66.27007
G1 X16.347 Y149.511 E66.31005
G1 X15.52 Y149.15 E66.34996
G1 X14.727 Y148.717 E66.38993
G1 X13.976 Y148.216 E66.42987
G1 X13.272 Y147.65 E66.46983
G1 X12.621 Y147.024 E66.50978
G1 X12.028 Y146.343 E66.54972
G1 X11.498 Y145.612 E66.58966
G1 X11.034 Y144.837 E66.62962
G1 X10.64 Y144.024 E66.66959
G1 X10.32 Y143.18 E66.70952
G1 X10.076 Y142.31 E66.74949
G1 X9.91 Y141.422 E66.78945
G1 X9.813 Y140.267 E66.84072
G1 X9.804 Y139.934 E66.85546
G1 X9.8 Y139.658 E66.86767
G1 X9.801 Y20.536 E72.13714
G1 X9.81 Y19.871 E72.16656
G1 X9.862 Y18.969 E72.20653
G1 X9.994 Y18.076 E72.24646
G1 X10.204 Y17.198 E72.2864
G1 X10.491 Y16.341 E72.32638
G1 X10.853 Y15.514 E72.36631
G1 X11.286 Y14.722 E72.40624
G1 X11.788 Y13.971 E72.4462
G1 X12.355 Y13.267 E72.48619
G1 X12.981 Y12.617 E72.52611
G1 F2700 E66.52611
;MESH:scale_freecad-Body.stl
G0 F7500 X21.21 Y19.335
G0 X21.21 Y21.21
G0 X138.818 Y21.182
G0 X139 Y139
;TYPE:WALL-INNER
G1 F2700 E72.52611
G1 F1800 X21 Y139 E77.74595
G1 X21 Y21 E82.9658
G1 X139 Y21 E88.18564
G1 X139 Y139 E93.40549
G0 F7500 X139.4 Y139.4
G1 F1800 X20.6 Y139.4 E98.66072
G1 X20.6 Y20.6 E103.91596
G1 X139.4 Y20.6 E109.17119
G1 X139.4 Y139.4 E114.42643
G0 F7500 X139.8 Y139.8
;TYPE:WALL-OUTER
G1 F1800 X20.2 Y139.8 E119.45252
G1 X20.2 Y20.2 E124.47861
G1 X139.8 Y20.2 E129.5047
G1 X139.8 Y139.8 E134.5308
G0 F7500 X139.4 Y139.8
G0 X139.36 Y139.36
G0 X138.89 Y138.61
G0 X138.61 Y138.61
;TYPE:SKIN
G1 F1800 X21.39 Y138.61 E139.71614
G1 X21.39 Y21.39 E144.90148
G1 X138.61 Y21.39 E150.08682
G1 X138.61 Y138.61 E155.27216
G1 F2700 E149.27216
G0 F7500 X138.89 Y138.61
G0 X138.89 Y21.938
G1 F2700 E155.27216
G0 F7500 X138.469 Y21.938
G1 F1800 X138.061 Y21.529 E155.29772
G0 F7500 X137.495 Y21.529
G1 F1800 X138.469 Y22.504 E155.35868
G0 F7500 X138.469 Y23.07
G1 F1800 X136.929 Y21.529 E155.45505
G0 F7500 X136.364 Y21.529
G1 F1800 X138.469 Y23.635 E155.58677
G0 F7500 X138.469 Y24.201
G1 F1800 X135.798 Y21.529 E155.7539
G0 F7500 X135.232 Y21.529
G1 F1800 X138.469 Y24.767 E155.95643
G0 F7500 X138.469 Y25.332
G1 F1800 X134.667 Y21.529 E156.19431
G0 F7500 X134.101 Y21.529
G1 F1800 X138.469 Y25.898 E156.4676
G0 F7500 X138.469 Y26.464
G1 F1800 X133.535 Y21.529 E156.7763
G0 F7500 X132.97 Y21.529
G1 F1800 X138.469 Y27.029 E157.12035
G0 F7500 X138.469 Y27.595
G1 F1800 X132.404 Y21.529 E157.4998
G0 F7500 X131.838 Y21.529
G1 F1800 X138.469 Y28.161 E157.91466
G0 F7500 X138.469 Y28.726
G1 F1800 X131.272 Y21.529 E158.3649
G0 F7500 X130.707 Y21.529
G1 F1800 X138.469 Y29.292 E158.85051
G0 F7500 X138.469 Y29.858
G1 F1800 X130.141 Y21.529 E159.37154
G0 F7500 X129.575 Y21.529
G1 F1800 X138.469 Y30.423 E159.92794
G0 F7500 X138.469 Y30.989
G1 F1800 X129.01 Y21.529 E160.51971
G0 F7500 X128.444 Y21.529
G1 F1800 X138.469 Y31.555 E161.1469
G0 F7500 X138.469 Y32.121
G1 F1800 X127.878 Y21.529 E161.8095
G0 F7500 X127.313 Y21.529
G1 F1800 X138.469 Y32.686 E162.50744
G0 F7500 X138.469 Y33.252
G1 F1800 X126.747 Y21.529 E163.24079
G0 F7500 X126.181 Y21.529
G1 F1800 X138.469 Y33.818 E164.00954
G0 F7500 X138.469 Y34.383
G1 F1800 X125.616 Y21.529 E164.81365
G0 F7500 X125.05 Y21.529
G1 F1800 X138.469 Y34.949 E165.65316
G0 F7500 X138.469 Y35.515
G1 F1800 X124.484 Y21.529 E166.52808
G0 F7500 X123.919 Y21.529
G1 F1800 X138.469 Y36.08 E167.43835
G0 F7500 X138.469 Y36.646
G1 F1800 X123.353 Y21.529 E168.38402
G0 F7500 X122.787 Y21.529
G1 F1800 X138.469 Y37.212 E169.3651
G0 F7500 X138.469 Y37.777
G1 F1800 X122.221 Y21.529 E170.38157
G0 F7500 X121.656 Y21.529
G1 F1800 X138.469 Y38.343 E171.4334
G0 F7500 X138.469 Y38.909
G1 F1800 X121.09 Y21.529 E172.52065
G0 F7500 X120.524 Y21.529
G1 F1800 X138.469 Y39.474 E173.64327
G0 F7500 X138.469 Y40.04
G1 F1800 X119.959 Y21.529 E174.80127
G0 F7500 X119.393 Y21.529
G1 F1800 X138.469 Y40.606 E175.99468
G0 F7500 X138.469 Y41.171
G1 F1800 X118.827 Y21.529 E177.22347
G0 F7500 X118.262 Y21.529
G1 F1800 X138.469 Y41.737 E178.48763
G0 F7500 X138.469 Y42.303
G1 F1800 X117.696 Y21.529 E179.7872
G0 F7500 X117.13 Y21.529
G1 F1800 X138.469 Y42.869 E181.12218
G0 F7500 X138.469 Y43.434
G1 F1800 X116.565 Y21.529 E182.49251
G0 F7500 X115.999 Y21.529
G1 F1800 X138.469 Y44 E183.89825
G0 F7500 X138.469 Y44.566
G1 F1800 X115.433 Y21.529 E185.33939
G0 F7500 X114.868 Y21.529
G1 F1800 X138.469 Y45.131 E186.81588
G0 F7500 X138.469 Y45.697
G1 F1800 X114.302 Y21.529 E188.32778
G0 F7500 X113.736 Y21.529
G1 F1800 X138.469 Y46.263 E189.87508
G0 F7500 X138.469 Y46.828
G1 F1800 X113.171 Y21.529 E191.45773
G0 F7500 X112.605 Y21.529
G1 F1800 X138.469 Y47.394 E193.07579
G0 F7500 X138.469 Y47.96
G1 F1800 X112.039 Y21.529 E194.72926
G0 F7500 X111.473 Y21.529
G1 F1800 X138.469 Y48.525 E196.41811
G0 F7500 X138.469 Y49.091
G1 F1800 X110.908 Y21.529 E198.14233
G0 F7500 X110.342 Y21.529
G1 F1800 X138.469 Y49.657 E199.90196
G0 F7500 X138.469 Y50.222
G1 F1800 X109.776 Y21.529 E201.69697
G0 F7500 X109.211 Y21.529
G1 F1800 X138.469 Y50.788 E203.52736
G0 F7500 X138.469 Y51.354
G1 F1800 X108.645 Y21.529 E205.39315
G0 F7500 X108.079 Y21.529
G1 F1800 X138.469 Y51.92 E207.29436
G0 F7500 X138.469 Y52.485
G1 F1800 X107.514 Y21.529 E209.23091
G0 F7500 X106.948 Y21.529
G1 F1800 X138.469 Y53.051 E211.20286
G0 F7500 X138.469 Y53.617
G1 F1800 X106.382 Y21.529 E213.21023
G0 F7500 X105.817 Y21.529
G1 F1800 X138.469 Y54.182 E215.25294
G0 F7500 X138.469 Y54.748
G1 F1800 X105.251 Y21.529 E217.33106
G0 F7500 X104.685 Y21.529
G1 F1800 X138.469 Y55.314 E219.44459
G0 F7500 X138.469 Y55.879
G1 F1800 X104.12 Y21.529 E221.59346
G0 F7500 X103.554 Y21.529
G1 F1800 X138.469 Y56.445 E223.77775
G0 F7500 X138.469 Y57.011
G1 F1800 X102.988 Y21.529 E225.99744
G0 F7500 X102.423 Y21.529
G1 F1800 X138.469 Y57.576 E228.25248
G0 F7500 X138.469 Y58.142
G1 F1800 X101.857 Y21.529 E230.54292
G0 F7500 X101.291 Y21.529
G1 F1800 X138.469 Y58.708 E232.86878
G0 F7500 X138.469 Y59.273
G1 F1800 X100.725 Y21.529 E235.23001
G0 F7500 X100.16 Y21.529
G1 F1800 X138.469 Y59.839 E237.62662
G0 F7500 X138.469 Y60.405
G1 F1800 X99.594 Y21.529 E240.05863
G0 F7500 X99.028 Y21.529
G1 F1800 X138.469 Y60.97 E242.52603
G0 F7500 X138.469 Y61.536
G1 F1800 X98.463 Y21.529 E245.0288
G0 F7500 X97.897 Y21.529
G1 F1800 X138.469 Y62.102 E247.56698
G0 F7500 X138.469 Y62.668
G1 F1800 X97.331 Y21.529 E250.14057
G0 F7500 X96.766 Y21.529
G1 F1800 X138.469 Y63.233 E252.7495
G0 F7500 X138.469 Y63.799
G1 F1800 X96.2 Y21.529 E255.39385
G0 F7500 X95.634 Y21.529
G1 F1800 X138.469 Y64.365 E258.0736
G0 F7500 X138.469 Y64.93
G1 F1800 X95.069 Y21.529 E260.78869
G0 F7500 X94.503 Y21.529
G1 F1800 X138.469 Y65.496 E263.5392
G0 F7500 X138.469 Y66.062
G1 F1800 X93.937 Y21.529 E266.32511
G0 F7500 X93.372 Y21.529
G1 F1800 X138.469 Y66.627 E269.14637
G0 F7500 X138.469 Y67.193
G1 F1800 X92.806 Y21.529 E272.00304
G0 F7500 X92.24 Y21.529
G1 F1800 X138.469 Y67.759 E274.89512
G0 F7500 X138.469 Y68.324
G1 F1800 X91.674 Y21.529 E277.82257
G0 F7500 X91.109 Y21.529
G1 F1800 X138.469 Y68.89 E280.7854
G0 F7500 X138.469 Y69.456
G1 F1800 X90.543 Y21.529 E283.78364
G0 F7500 X89.977 Y21.529
G1 F1800 X138.469 Y70.021 E286.81726
G0 F7500 X138.469 Y70.587
G1 F1800 X89.412 Y21.529 E289.88626
G0 F7500 X88.846 Y21.529
G1 F1800 X138.469 Y71.153 E292.99066
G0 F7500 X138.469 Y71.719
G1 F1800 X88.28 Y21.529 E296.13047
G0 F7500 X87.715 Y21.529
G1 F1800 X138.469 Y72.284 E299.30563
G0 F7500 X138.469 Y72.85
G1 F1800 X87.149 Y21.529 E302.51619
G0 F7500 X86.583 Y21.529
G1 F1800 X138.469 Y73.416 E305.76216
G0 F7500 X138.469 Y73.981
G1 F1800 X86.018 Y21.529 E309.04348
G0 F7500 X85.452 Y21.529
G1 F1800 X138.469 Y74.547 E312.36021
G0 F7500 X138.469 Y75.113
G1 F1800 X84.886 Y21.529 E315.71235
G0 F7500 X84.321 Y21.529
G1 F1800 X138.469 Y75.678 E319.09983
G0 F7500 X138.469 Y76.244
G1 F1800 X83.755 Y21.529 E322.52272
G0 F7500 X83.189 Y21.529
G1 F1800 X138.469 Y76.81 E325.98102
G0 F7500 X138.469 Y77.375
G1 F1800 X82.624 Y21.529 E329.47467
G0 F7500 X82.058 Y21.529
G1 F1800 X138.469 Y77.941 E333.00372
G0 F7500 X138.469 Y78.507
G1 F1800 X81.492 Y21.529 E336.56818
G0 F7500 X80.926 Y21.529
G1 F1800 X138.469 Y79.072 E340.16802
G0 F7500 X138.469 Y79.638
G1 F1800 X80.361 Y21.529 E343.80324
G0 F7500 X79.795 Y21.529
G1 F1800 X138.469 Y80.204 E347.47387
G0 F7500 X138.469 Y80.769
